svg/u1fac2.svg

<svg viewBox="0 0 128 128" xmlns="http://www.w3.org/2000/svg">
  <g>
    <g>
      <radialGradient id="SVGID_1_" cx="71.3534" cy="54.7609" gradientTransform="matrix(0.9977 0.0674 -0.0674 0.9977 6.4199 -16.6873)" gradientUnits="userSpaceOnUse" r="41.0418">
        <stop offset="0.4702" stop-color="#42A5F5"/>
        <stop offset="1" stop-color="#FCE8B2"/>
      </radialGradient>
      <path d="M82.58,5.72c-10.59-0.71-27.85,9.87-23.63,34.9c2.61,15.47,12.62,23.12,19.68,23.6 s18.01-5.76,22.68-20.74C108.85,19.25,93.17,6.43,82.58,5.72z" fill="url(#SVGID_1_)"/>
    </g>
    <g>
      <linearGradient id="SVGID_2_" gradientUnits="userSpaceOnUse" x1="75.6012" x2="66.5725" y1="30.5276" y2="114.1042">
        <stop offset="0.1283" stop-color="#FCE8B2"/>
        <stop offset="0.6399" stop-color="#42A5F5"/>
      </linearGradient>
      <path d="M117.94,83.27c-4.15-16.61-16.84-25.96-30.58-27.66c-5.48-0.68-11.04-0.92-16.48,0.01 c-1.27,0.22-2.7,0.82-3.97,0.86c-0.98,0.03-32.26-12.01-33.57-12.46C29.68,42.73,22.17,43,19.17,51c-3.93,10.47,12,18,35,36 l-0.94,37h66.79C120.02,124,121.1,95.91,117.94,83.27z" fill="url(#SVGID_2_)"/>
    </g>
    <linearGradient id="SVGID_3_" gradientUnits="userSpaceOnUse" x1="28.1088" x2="63.8296" y1="135.2955" y2="46.5515">
      <stop offset="0" stop-color="#0D47A1"/>
      <stop offset="0.6795" stop-color="#1976D2"/>
    </linearGradient>
    <path d="M89.17,70c-3-5-9.75-1.11-12,1c-16,15-19.7,17.19-22.96,15.43 c-0.99-0.53-2.94-1.91-8.22-5.99S22.17,62,22.17,62c-18,15-13.96,62-13.96,62h45.02l0.81-14.92c5.68,0.91,9.99-1.04,14.12-4.08 c7.61-5.62,13.02-10.7,18-19C89.17,81,92.17,75,89.17,70z" fill="url(#SVGID_3_)"/>
    <radialGradient id="SVGID_4_" cx="45.6283" cy="49.2045" gradientTransform="matrix(0.923 -0.3847 0.3847 0.923 -14.1241 20.4323)" gradientUnits="userSpaceOnUse" r="46.5854">
      <stop offset="0.5269" stop-color="#1565C0"/>
      <stop offset="1" stop-color="#FADA80"/>
    </radialGradient>
    <path d="M39.45,7.91c-9.8,4.08-20.53,21.26-5.58,41.78c9.23,12.68,21.61,15.06,28.14,12.34 c6.53-2.72,13.55-13.19,11.05-28.67C69,8.3,49.25,3.83,39.45,7.91z" fill="url(#SVGID_4_)"/>
    <path d="M103.75,60.18c0,0-10.57,6.82-14.57-0.18c-3.58-6.26,7.1-12.75,7.1-12.75 c3.11-1.79,7.23-1.56,9.56,2.53C108.63,54.67,106.86,58.39,103.75,60.18z" fill="#1976D2"/>
  </g>
</svg>

<svg viewBox="0 0 128 128" xmlns="http://www.w3.org/2000/svg">
  <defs>
    <linearGradient id="SVGID_3_" gradientUnits="userSpaceOnUse" x1="28.1088" x2="63.8296" y1="135.2955" y2="46.5515">
      <stop offset="0" stop-color="#0D47A1"/>
      <stop offset="0.6795" stop-color="#1976D2"/>
    </linearGradient>
    <radialGradient id="SVGID_4_" cx="24.729843" cy="62.631004" gradientTransform="matrix(0.923 -0.3847 0.3847 0.923 0 0)" gradientUnits="userSpaceOnUse" r="46.5854">
      <stop offset="0.5269" stop-color="#1565C0"/>
      <stop offset="1" stop-color="#FADA80"/>
    </radialGradient>
    <radialGradient id="SVGID_1_" cx="76.634085" cy="37.678392" gradientTransform="matrix(0.9977 0.0674 -0.0674 0.9977 0 0)" gradientUnits="userSpaceOnUse" r="41.0418">
      <stop offset="0.4702" stop-color="#42A5F5"/>
      <stop offset="1" stop-color="#FCE8B2"/>
    </radialGradient>
    <linearGradient id="SVGID_2_" gradientUnits="userSpaceOnUse" x1="75.6012" x2="66.5725" y1="30.5276" y2="114.1042">
      <stop offset="0.1283" stop-color="#FCE8B2"/>
      <stop offset="0.6399" stop-color="#42A5F5"/>
    </linearGradient>
  </defs>
  <path d="M82.58,5.72 C71.99,5.01 54.73,15.59 58.95,40.62 C61.56,56.09 71.57,63.74 78.63,64.22 C85.69,64.7 96.64,58.46 101.31,43.48 C108.85,19.25 93.17,6.43 82.58,5.72 Z" fill="url(#SVGID_1_)"/>
  <path d="M117.94,83.27 C113.79,66.66 101.1,57.31 87.36,55.61 C81.88,54.93 76.32,54.69 70.88,55.62 C69.61,55.84 68.18,56.44 66.91,56.48 C65.93,56.51 34.65,44.47 33.34,44.02 C29.68,42.73 22.17,43 19.17,51 C15.24,61.47 31.17,69 54.17,87 L53.23,124 L120.02,124 C120.02,124 121.1,95.91 117.94,83.27 Z" fill="url(#SVGID_2_)"/>
  <path d="M89.17,70 C86.17,65 79.42,68.89 77.17,71 C61.17,86 57.47,88.19 54.21,86.43 C53.22,85.9 51.27,84.52 45.99,80.44 C40.71,76.36 22.17,62 22.17,62 C4.17,77 8.21,124 8.21,124 L53.23,124 L54.04,109.08 C59.72,109.99 64.03,108.04 68.16,105 C75.77,99.38 81.18,94.3 86.16,86 C89.17,81 92.17,75 89.17,70 Z" fill="url(#SVGID_3_)"/>
  <path d="M39.45,7.91 C29.65,11.99 18.92,29.17 33.87,49.69 C43.1,62.37 55.48,64.75 62.01,62.03 C68.54,59.31 75.56,48.84 73.06,33.36 C69,8.3 49.25,3.83 39.45,7.91 Z" fill="url(#SVGID_4_)"/>
  <path d="M103.75,60.18 C103.75,60.18 93.18,67 89.18,60 C85.6,53.74 96.28,47.25 96.28,47.25 C99.39,45.46 103.51,45.69 105.84,49.78 C108.63,54.67 106.86,58.39 103.75,60.18 Z" fill="#1976D2"/>
</svg>
